X: 35461
T: Rowley Burn
R: hornpipe
M: 4/4
K: Gmajor
|:(3def|g>fg>d e>cA>F|G>FG>B D2 G>F|E>cA>G F>DE>F|G>AB>c d2 (3def|
g>fg>d e>cA>F|G>FG>B D2 G>F|E>cA>G F>DE>F|G2 B2 G2:|
|:(3Bc^c|d>Bg>d b>gd>^d|e>cG>c E>Gc>e|d>BG>B d>Bg>d|a>gf>e (3dec (3Bc^c|
d>Bg>d b>gd>^d|e>cG>c E>Gc>e|d>Bd>g f>df>a|1 g2 g2 g2:|2 g2 b2 g2||

